X: 12314
T: Fairy, The
R: reel
M: 4/4
K: Dmajor
f2 fd f2 fd|f2 fd cd e2|f2 fd gfed|cABc dcde|
(3fgf DA (3fgf DA|f2 fd cd e2|f2 fd gfed|cABc defg||
a3f b3a|g3e a3g|f2 fd gfed|cABc defg|
a3f b3a|g3e a3g|f2 fd gfed|cABc d3e||

